build/img/sprite/icon-calendar.svg

<svg id="calendar" width="35" height="35" viewBox="0 0 35 35" fill="currentColor" xmlns="http://www.w3.org/2000/svg">
<path d="M4.12354 2.76177C4.12354 2.52971 4.12149 2.32845 4.12354 2.12514C4.14203 0.628026 5.45902 -0.320761 6.87873 0.14131C7.64715 0.391856 8.21216 1.16608 8.23887 2.01013C8.24708 2.24836 8.23887 2.48658 8.23887 2.74123H11.6721C11.6721 2.50917 11.6659 2.28943 11.6721 2.06969C11.6988 1.19073 12.1056 0.539719 12.9048 0.188544C13.6958 -0.156469 14.4478 -0.0229816 15.1032 0.547934C15.5532 0.940181 15.7586 1.45359 15.7874 2.04094C15.7977 2.26889 15.7874 2.4989 15.7874 2.74329H19.2103C19.2103 2.53587 19.2103 2.33461 19.2103 2.13335C19.2227 0.632133 20.5622 -0.326922 21.9881 0.145418C22.7298 0.389802 23.2804 1.13117 23.3236 1.95469C23.3359 2.20934 23.3236 2.46604 23.3236 2.74123H26.7609C26.7609 2.52355 26.7568 2.31407 26.7609 2.10255C26.7815 1.21537 27.1862 0.549987 27.9937 0.194705C28.8011 -0.16263 29.5716 -0.0168208 30.2331 0.578738C30.6605 0.964825 30.8577 1.46592 30.8783 2.03683C30.8865 2.26684 30.8783 2.49685 30.8783 2.76177C31.3385 2.76177 31.772 2.76177 32.2076 2.76177C32.7418 2.75972 33.239 2.88704 33.6931 3.17455C34.4943 3.68181 34.9135 4.41496 34.9936 5.35143C35.0018 5.45411 34.9998 5.55679 34.9998 5.65947C34.9998 14.4717 34.9998 23.286 34.9998 32.0982C34.9998 32.8539 34.7923 33.5234 34.2766 34.0923C33.7732 34.6447 33.1486 34.9302 32.4131 34.9918C32.3021 35.0021 32.1912 34.9979 32.0802 34.9979C22.3559 34.9979 12.6316 34.9979 2.90723 35C2.14087 35 1.46492 34.7864 0.891688 34.2627C0.347224 33.7658 0.0719103 33.1435 0.00821832 32.4206C-0.00205458 32.3097 0.00205458 32.1988 0.00205458 32.0879C0.00205458 23.2839 0.00205458 14.4799 0 5.67385C0 4.80721 0.262986 4.06173 0.910179 3.47233C1.40944 3.01848 2.00116 2.7782 2.67917 2.76588C3.14762 2.75766 3.61606 2.76588 4.12149 2.76588L4.12354 2.76177ZM1.37451 10.9928C1.37451 11.0996 1.37451 11.1838 1.37451 11.268C1.37451 18.2237 1.38068 25.1815 1.3663 32.1372C1.3663 32.9895 2.06691 33.6343 2.86614 33.6343C12.6254 33.6199 22.3846 33.6199 32.1418 33.6343C32.9637 33.6343 33.6437 32.9648 33.6417 32.1372C33.6253 25.1815 33.6335 18.2237 33.6335 11.268V10.9949H1.37451V10.9928ZM1.37451 9.59427H33.6253C33.6253 8.15877 33.652 6.73969 33.6109 5.32062C33.5944 4.79489 33.2554 4.34514 32.7336 4.23424C32.1439 4.10897 31.5214 4.13156 30.8844 4.08843C30.8844 4.41291 30.8844 4.65935 30.8844 4.90578C30.8803 5.33089 30.7406 5.71287 30.4879 6.04556C29.8962 6.81979 29.0066 7.03953 28.2073 6.78693C27.3054 6.49942 26.7691 5.72108 26.7671 4.7723C26.7671 4.56282 26.7671 4.35335 26.7671 4.14593H23.3359C23.3359 4.30406 23.338 4.44782 23.3359 4.59157C23.3318 4.78873 23.3503 4.98998 23.3133 5.18097C23.1038 6.28994 22.1402 7.00256 20.9875 6.86291C20.0363 6.74791 19.198 5.90386 19.2144 4.77846C19.2165 4.56898 19.2144 4.35746 19.2144 4.14799H15.7936C15.7936 4.35951 15.8038 4.55461 15.7915 4.74765C15.7771 4.96739 15.7627 5.19124 15.7073 5.40277C15.434 6.43986 14.2773 7.09908 13.2377 6.82184C12.2864 6.56924 11.6782 5.78475 11.6741 4.79899C11.6741 4.58131 11.6741 4.36362 11.6741 4.14388H8.24297C8.24297 4.40469 8.24297 4.64908 8.24297 4.89552C8.23886 5.32884 8.09299 5.71903 7.83411 6.05583C7.2917 6.76434 6.36303 7.05801 5.57202 6.79514C4.67828 6.49736 4.12765 5.73135 4.12354 4.78256C4.12354 4.57309 4.12354 4.36157 4.12354 4.12745C3.65715 4.12745 3.2298 4.1254 2.8045 4.12745C1.95596 4.13361 1.37862 4.71685 1.37657 5.56706C1.37657 6.14824 1.37657 6.73148 1.37657 7.31266C1.37657 8.0643 1.37657 8.81594 1.37657 9.59222L1.37451 9.59427ZM5.49189 3.41072C5.49189 3.8461 5.48778 4.28147 5.49189 4.71685C5.49806 5.15838 5.79802 5.49313 6.17812 5.49313C6.56233 5.49313 6.86024 5.16249 6.8623 4.72095C6.86641 3.85842 6.86641 2.99589 6.8623 2.13541C6.8623 1.70209 6.57877 1.39198 6.19045 1.38582C5.78981 1.37966 5.49395 1.69182 5.48984 2.13335C5.48573 2.56051 5.48984 2.98767 5.48984 3.41278L5.49189 3.41072ZM29.512 3.41894C29.512 2.97535 29.5182 2.53176 29.512 2.08817C29.5038 1.6836 29.1997 1.38172 28.8196 1.38377C28.4416 1.38582 28.1436 1.69182 28.1416 2.10049C28.1375 2.97124 28.1375 3.84199 28.1416 4.71274C28.1436 5.15633 28.4416 5.48902 28.8216 5.49313C29.2141 5.49929 29.5099 5.16249 29.514 4.70042C29.5182 4.27326 29.514 3.8461 29.514 3.42099L29.512 3.41894ZM14.4149 3.41278C14.4149 2.96919 14.4211 2.5256 14.4149 2.08201C14.4088 1.69387 14.1067 1.38993 13.741 1.38377C13.3609 1.37761 13.0425 1.6836 13.0404 2.07996C13.0343 2.96714 13.026 3.85637 13.0486 4.74355C13.0527 4.93043 13.1555 5.14401 13.2767 5.28982C13.4616 5.50956 13.7328 5.55268 13.9999 5.42741C14.2711 5.30008 14.4067 5.06597 14.4129 4.77024C14.4232 4.31844 14.4149 3.86458 14.4149 3.41278ZM21.9655 3.41894C21.9655 2.98357 21.9696 2.54819 21.9655 2.11282C21.9614 1.69387 21.6594 1.38172 21.2711 1.38377C20.893 1.38582 20.5931 1.69387 20.5889 2.10049C20.5848 2.97124 20.5848 3.84199 20.5889 4.71274C20.591 5.15633 20.891 5.49107 21.2731 5.49313C21.6655 5.49518 21.9635 5.15838 21.9676 4.70042C21.9696 4.27326 21.9676 3.8461 21.9676 3.41894H21.9655Z" fill="currentColor"/>
<path d="M18.5301 15.4225C18.5301 14.8742 18.5281 14.328 18.5301 13.7796C18.5322 13.3319 18.8219 13.0424 19.2677 13.0403C20.3813 13.0362 21.4928 13.0362 22.6064 13.0403C23.0317 13.0403 23.3235 13.3176 23.3276 13.7427C23.3358 14.8722 23.3358 16.0017 23.3276 17.1312C23.3255 17.5625 23.0441 17.8397 22.6167 17.8438C21.4949 17.85 20.3731 17.85 19.2534 17.8438C18.8116 17.8418 18.5343 17.5542 18.5301 17.1168C18.526 16.5521 18.5301 15.9873 18.5301 15.4225ZM21.9613 14.4347H19.9273V16.4535H21.9613V14.4347Z" fill="currentColor"/>
<path d="M16.4755 15.4431C16.4755 15.9996 16.4775 16.5561 16.4755 17.1106C16.4714 17.5481 16.194 17.8397 15.7564 17.8417C14.6346 17.8479 13.5128 17.8479 12.393 17.8417C11.9595 17.8397 11.6801 17.5665 11.678 17.1353C11.6698 16.0058 11.6698 14.8763 11.678 13.7467C11.6801 13.3196 11.9698 13.0403 12.393 13.0382C13.5148 13.0341 14.6366 13.0341 15.7564 13.0382C16.1858 13.0382 16.4714 13.3381 16.4755 13.7714C16.4796 14.3279 16.4755 14.8845 16.4755 15.439V15.4431ZM13.0484 16.4617H15.0804V14.4347H13.0484V16.4617Z" fill="currentColor"/>
<path d="M18.5301 29.1615C18.5301 28.6049 18.5281 28.0484 18.5301 27.4939C18.5322 27.0565 18.8116 26.7669 19.2492 26.7628C20.3711 26.7566 21.4929 26.7566 22.6126 26.7628C23.042 26.7649 23.3235 27.0421 23.3276 27.4713C23.3358 28.6008 23.3358 29.7303 23.3276 30.8598C23.3235 31.287 23.0338 31.5642 22.6105 31.5663C21.4887 31.5704 20.3669 31.5704 19.2472 31.5663C18.8178 31.5663 18.5322 31.2665 18.5301 30.8311C18.526 30.2745 18.5301 29.718 18.5301 29.1635V29.1615ZM21.9449 30.178V28.149H19.9252V30.178H21.9449Z" fill="currentColor"/>
<path d="M16.4759 29.1634C16.4759 29.7118 16.4779 30.258 16.4759 30.8064C16.4738 31.2746 16.1924 31.5642 15.7321 31.5662C14.6288 31.5703 13.5235 31.5703 12.4202 31.5662C11.964 31.5662 11.6805 31.289 11.6785 30.8331C11.6723 29.72 11.6723 28.609 11.6785 27.4959C11.6805 27.0379 11.962 26.7648 12.4202 26.7627C13.5235 26.7586 14.6288 26.7586 15.7321 26.7627C16.2006 26.7648 16.4738 27.0502 16.4759 27.5205C16.4779 28.0688 16.4759 28.6151 16.4759 29.1634ZM13.055 28.1489V30.1697H15.0829V28.1489H13.055Z" fill="currentColor"/>
<path d="M16.4754 22.3022C16.4754 22.8587 16.4795 23.4132 16.4754 23.9697C16.4713 24.4154 16.2021 24.6926 15.7563 24.6967C14.6365 24.7029 13.5147 24.7029 12.395 24.6967C11.9574 24.6967 11.682 24.4297 11.68 23.9964C11.6718 22.8669 11.6718 21.7395 11.68 20.6099C11.6841 20.1746 11.9574 19.9117 12.397 19.9097C13.5168 19.9055 14.6386 19.9035 15.7583 19.9097C16.2062 19.9117 16.4754 20.1889 16.4774 20.6366C16.4815 21.1932 16.4774 21.7477 16.4774 22.3042L16.4754 22.3022ZM15.0762 23.3126V21.2938H13.0525V23.3126H15.0762Z" fill="currentColor"/>
<path d="M18.5302 22.2919C18.5302 21.7457 18.5282 21.1973 18.5302 20.6511C18.5323 20.1869 18.7994 19.9118 19.2596 19.9097C20.3711 19.9056 21.4847 19.9056 22.5962 19.9097C23.0606 19.9097 23.3277 20.1767 23.3297 20.647C23.3359 21.7498 23.3359 22.8526 23.3297 23.9554C23.3277 24.438 23.0606 24.6968 22.5757 24.6988C21.4806 24.7029 20.3855 24.7029 19.2904 24.6988C18.7953 24.6988 18.5323 24.4298 18.5302 23.9349C18.5282 23.3886 18.5302 22.8403 18.5302 22.294V22.2919ZM19.9314 21.2918V23.3105H21.9552V21.2918H19.9314Z" fill="currentColor"/>
<path d="M25.414 22.2498C25.414 21.7035 25.4119 21.1552 25.414 20.609C25.4161 20.1448 25.6831 19.8696 26.1434 19.8676C27.2549 19.8635 28.3685 19.8635 29.48 19.8676C29.9443 19.8676 30.2114 20.1346 30.2135 20.6048C30.2197 21.7077 30.2197 22.8105 30.2135 23.9133C30.2114 24.3959 29.9443 24.6546 29.4595 24.6567C28.3644 24.6608 27.2693 24.6608 26.1742 24.6567C25.679 24.6567 25.4161 24.3877 25.414 23.8927C25.4119 23.3465 25.414 22.7981 25.414 22.2519V22.2498ZM26.8152 21.2497V23.2684H28.839V21.2497H26.8152Z" fill="currentColor"/>
<path d="M7.22571 13.0403C7.76401 13.0403 8.30436 13.0383 8.84266 13.0403C9.32138 13.0424 9.60285 13.3094 9.60491 13.7797C9.61107 14.8907 9.61107 16.0038 9.60491 17.1148C9.60285 17.5707 9.32138 17.8438 8.86115 17.8459C7.75784 17.85 6.65248 17.85 5.54917 17.8459C5.091 17.8438 4.81568 17.5645 4.81363 17.1086C4.80952 15.9976 4.80952 14.8845 4.81363 13.7735C4.81363 13.3237 5.10332 13.0444 5.55739 13.0424C6.11418 13.0383 6.66891 13.0424 7.22571 13.0424V13.0403ZM6.20047 16.4576H8.22834V14.4368H6.20047V16.4576Z" fill="currentColor"/>
<path d="M30.1939 15.4555C30.1939 16.0038 30.1959 16.55 30.1939 17.0984C30.1898 17.5687 29.9165 17.8459 29.4419 17.8459C28.3468 17.85 27.2517 17.85 26.1566 17.8459C25.6779 17.8459 25.4026 17.5728 25.4005 17.1004C25.3964 15.9976 25.3964 14.8948 25.4005 13.7899C25.4005 13.3135 25.6779 13.0424 26.1525 13.0404C27.2476 13.0383 28.3427 13.0383 29.4378 13.0404C29.9062 13.0404 30.1898 13.3217 30.1939 13.7858C30.198 14.3424 30.1939 14.8969 30.1939 15.4534V15.4555ZM28.7988 16.47V14.4368H26.7853V16.47H28.7988Z" fill="currentColor"/>
<path d="M30.194 29.1697C30.194 29.718 30.1961 30.2643 30.194 30.8126C30.192 31.2829 29.9126 31.5663 29.4462 31.5684C28.3429 31.5704 27.2395 31.5725 26.1342 31.5684C25.6904 31.5684 25.4048 31.2952 25.4007 30.8537C25.3925 29.7242 25.3925 28.5967 25.4007 27.4672C25.4027 27.0401 25.6863 26.7669 26.1198 26.7649C27.2416 26.7587 28.3613 26.7587 29.4831 26.7649C29.9105 26.7669 30.1879 27.0524 30.192 27.4775C30.1981 28.0422 30.192 28.607 30.192 29.1718L30.194 29.1697ZM28.8113 28.147H26.7814V30.1678H28.8113V28.147Z" fill="currentColor"/>
<path d="M7.19735 31.5662C6.65905 31.5662 6.1187 31.5662 5.5804 31.5662C5.09552 31.5642 4.8161 31.289 4.81404 30.8064C4.81199 29.7118 4.81199 28.6172 4.81404 27.5226C4.81404 27.0359 5.0873 26.7648 5.57834 26.7627C6.66522 26.7586 7.75209 26.7586 8.83896 26.7627C9.33001 26.7627 9.60532 27.0338 9.60738 27.5226C9.61149 28.6172 9.61149 29.7118 9.60738 30.8064C9.60738 31.2972 9.33001 31.5642 8.84102 31.5662C8.29244 31.5683 7.74593 31.5662 7.19735 31.5662ZM8.21848 30.1738V28.153H6.20088V30.1738H8.21848Z" fill="currentColor"/>
<path d="M4.81162 22.2919C4.81162 21.7539 4.80957 21.2138 4.81162 20.6757C4.81368 20.1685 5.06434 19.9118 5.5636 19.9097C6.65869 19.9056 7.75378 19.9056 8.84888 19.9097C9.34814 19.9097 9.60291 20.1685 9.60496 20.6737C9.60907 21.76 9.60907 22.8464 9.60496 23.9328C9.60496 24.4483 9.34608 24.6988 8.82422 24.7009C7.74556 24.7029 6.66897 24.7029 5.59031 24.7009C5.05612 24.7009 4.81162 24.4483 4.80957 23.9102C4.80957 23.3722 4.80957 22.832 4.80957 22.294L4.81162 22.2919ZM6.20052 23.329C6.8436 23.329 7.45998 23.327 8.0743 23.329C8.21812 23.329 8.24277 23.2571 8.24072 23.136C8.23661 22.7355 8.24072 22.333 8.24072 21.9305C8.24072 21.721 8.24072 21.5095 8.24072 21.2898H6.20052V23.3249V23.329Z" fill="currentColor"/>
</svg>

<svg width="35" height="35" fill="currentColor" xmlns="http://www.w3.org/2000/svg"><path d="M4.124 2.762c0-.232-.003-.434 0-.637C4.142.628 5.459-.32 6.879.141c.768.25 1.333 1.025 1.36 1.87.008.237 0 .476 0 .73h3.433c0-.232-.006-.452 0-.671.027-.88.434-1.53 1.233-1.881.79-.345 1.543-.212 2.198.359.45.392.656.906.684 1.493.01.228 0 .458 0 .702h3.423v-.61c.013-1.5 1.352-2.46 2.778-1.988.742.245 1.292.986 1.336 1.81.012.254 0 .511 0 .786h3.437c0-.217-.004-.427 0-.638.02-.888.425-1.553 1.233-1.908.807-.358 1.578-.212 2.24.384.426.386.624.887.644 1.458.009.23 0 .46 0 .725h1.33a2.694 2.694 0 0 1 1.485.413c.801.507 1.22 1.24 1.3 2.176.009.103.007.206.007.308V32.1c0 .755-.208 1.424-.723 1.993-.504.553-1.128.838-1.864.9-.11.01-.222.006-.333.006-9.724 0-19.448 0-29.173.002-.766 0-1.442-.214-2.015-.737-.545-.497-.82-1.12-.884-1.842-.01-.111-.006-.222-.006-.333 0-8.804 0-17.608-.002-26.414 0-.867.263-1.612.91-2.202a2.628 2.628 0 0 1 1.77-.706c.468-.008.936 0 1.441 0l.003-.004Zm-2.75 8.23v.276c0 6.956.007 13.913-.008 20.87a1.5 1.5 0 0 0 1.5 1.496c9.76-.014 19.519-.014 29.276 0a1.5 1.5 0 0 0 1.5-1.497c-.017-6.956-.009-13.913-.009-20.869v-.273H1.375v-.002Zm0-1.398h32.251c0-1.435.027-2.854-.014-4.273-.017-.526-.356-.976-.877-1.087-.59-.125-1.213-.102-1.85-.146v.818a1.88 1.88 0 0 1-.396 1.14c-.592.774-1.481.994-2.28.74-.903-.287-1.439-1.065-1.44-2.014v-.626h-3.432c0 .158.002.302 0 .446-.004.197.014.398-.023.589-.21 1.109-1.173 1.822-2.325 1.682-.952-.115-1.79-.96-1.774-2.085.003-.209 0-.42 0-.63h-3.42c0 .212.01.407-.003.6-.014.22-.028.443-.084.655-.273 1.037-1.43 1.696-2.47 1.419-.95-.253-1.559-1.037-1.563-2.023v-.655H8.243v.752c-.004.433-.15.823-.409 1.16-.542.708-1.471 1.002-2.262.74-.894-.299-1.444-1.065-1.448-2.013v-.656c-.467 0-.894-.002-1.32 0-.848.007-1.425.59-1.427 1.44v4.026l-.002.001Zm4.118-6.183c0 .435-.004.87 0 1.306.006.441.306.776.686.776.384 0 .682-.33.684-.772.004-.863.004-1.725 0-2.586 0-.433-.283-.743-.672-.75-.4-.005-.696.307-.7.748-.004.428 0 .855 0 1.28l.002-.002Zm24.02.008c0-.444.006-.887 0-1.33-.008-.405-.312-.707-.692-.705-.378.002-.676.308-.678.716-.005.871-.005 1.742 0 2.613.002.443.3.776.68.78.392.006.688-.33.692-.793.004-.427 0-.854 0-1.279l-.002-.002Zm-15.097-.006c0-.444.006-.887 0-1.331a.697.697 0 0 0-.674-.698.693.693 0 0 0-.7.696c-.007.887-.015 1.776.008 2.664.004.186.107.4.228.546.185.22.456.263.723.137.271-.127.407-.361.413-.657.01-.452.002-.905.002-1.357Zm7.55.006c0-.435.005-.87 0-1.306-.004-.42-.306-.731-.694-.73-.378.003-.678.31-.682.717-.004.871-.004 1.742 0 2.613.002.443.302.778.684.78.393.002.69-.335.695-.793.002-.427 0-.854 0-1.281h-.003Z"/><path d="M18.53 15.422c0-.548-.002-1.094 0-1.642.002-.448.292-.738.738-.74 1.113-.004 2.225-.004 3.338 0 .426 0 .717.278.722.703.008 1.13.008 2.259 0 3.388-.002.431-.284.709-.711.713-1.122.006-2.244.006-3.364 0-.441-.002-.719-.29-.723-.727-.004-.565 0-1.13 0-1.695Zm3.431-.987h-2.034v2.018h2.034v-2.018ZM16.476 15.443c0 .557.002 1.113 0 1.668-.005.437-.282.729-.72.73a304.1 304.1 0 0 1-3.363 0c-.434-.001-.713-.274-.715-.706a233.39 233.39 0 0 1 0-3.388c.002-.427.292-.707.715-.709 1.122-.004 2.244-.004 3.363 0 .43 0 .715.3.72.733.004.557 0 1.113 0 1.668v.004Zm-3.428 1.019h2.032v-2.027h-2.032v2.027ZM18.53 29.162c0-.557-.002-1.114 0-1.668.002-.438.282-.727.72-.731a304.1 304.1 0 0 1 3.363 0c.429.002.71.28.715.708.008 1.13.008 2.26 0 3.389-.005.427-.294.704-.718.706a459.83 459.83 0 0 1-3.363 0c-.43 0-.715-.3-.717-.735-.004-.556 0-1.113 0-1.668v-.002Zm3.415 1.016v-2.029h-2.02v2.029h2.02ZM16.476 29.163c0 .549.002 1.095 0 1.643-.002.469-.284.758-.744.76-1.103.004-2.208.004-3.312 0-.456 0-.74-.277-.742-.733a299.381 299.381 0 0 1 0-3.337c.002-.458.284-.731.742-.733 1.104-.004 2.209-.004 3.312 0 .469.002.742.287.744.757.002.549 0 1.095 0 1.643Zm-3.421-1.014v2.02h2.028v-2.02h-2.028ZM16.475 22.302c0 .557.005 1.111 0 1.668-.004.445-.273.723-.719.727-1.12.006-2.241.006-3.361 0-.438 0-.713-.267-.715-.7a233.1 233.1 0 0 1 0-3.387c.004-.435.277-.698.717-.7 1.12-.005 2.242-.006 3.361 0 .448.002.717.279.72.727.003.556 0 1.11 0 1.667l-.003-.002Zm-1.399 1.01v-2.018h-2.024v2.019h2.024ZM18.53 22.292c0-.546-.002-1.095 0-1.64.002-.465.27-.74.73-.742 1.111-.004 2.225-.004 3.336 0 .465 0 .732.267.734.737.006 1.103.006 2.206 0 3.308-.002.483-.27.742-.754.744-1.095.004-2.19.004-3.286 0-.495 0-.758-.27-.76-.764-.002-.546 0-1.095 0-1.641v-.002Zm1.401-1v2.018h2.024v-2.018h-2.024ZM25.414 22.25c0-.547-.002-1.095 0-1.641.002-.464.27-.74.73-.741 1.11-.005 2.225-.005 3.336 0 .464 0 .731.267.733.737.007 1.103.007 2.206 0 3.308-.002.483-.269.742-.754.744-1.095.004-2.19.004-3.285 0-.495 0-.758-.27-.76-.764-.002-.547 0-1.095 0-1.641v-.002Zm1.401-1v2.018h2.024V21.25h-2.024ZM7.226 13.04c.538 0 1.078-.002 1.617 0 .478.002.76.27.762.74.006 1.11.006 2.224 0 3.335-.002.456-.284.729-.744.73-1.103.005-2.209.005-3.312 0-.458-.001-.733-.28-.735-.736a451.052 451.052 0 0 1 0-3.336c0-.45.29-.729.743-.73.557-.005 1.112 0 1.669 0v-.003ZM6.2 16.458h2.028v-2.021H6.2v2.02ZM30.194 15.456c0 .548.002 1.094 0 1.642-.004.47-.277.748-.752.748-1.095.004-2.19.004-3.285 0-.48 0-.754-.273-.756-.746a445.506 445.506 0 0 1 0-3.31c0-.476.277-.748.752-.75 1.095-.002 2.19-.002 3.285 0 .468 0 .752.282.756.746.004.556 0 1.11 0 1.667v.003Zm-1.395 1.014v-2.033h-2.014v2.033H28.8ZM30.194 29.17c0 .548.002 1.094 0 1.643-.002.47-.281.753-.748.755-1.103.002-2.207.005-3.312 0-.444 0-.73-.273-.733-.714a233.1 233.1 0 0 1 0-3.387c.002-.427.285-.7.719-.702 1.122-.006 2.241-.006 3.363 0 .427.002.705.287.709.712.006.565 0 1.13 0 1.695l.002-.002Zm-1.383-1.023h-2.03v2.02h2.03v-2.02ZM7.197 31.566H5.58c-.484-.002-.764-.277-.766-.76-.002-1.094-.002-2.189 0-3.283 0-.487.273-.758.764-.76 1.087-.004 2.174-.004 3.261 0 .491 0 .766.27.768.76.004 1.094.004 2.189 0 3.283 0 .491-.277.758-.766.76-.549.002-1.095 0-1.644 0Zm1.021-1.392v-2.021H6.201v2.02h2.017ZM4.812 22.292c0-.538-.002-1.078 0-1.616.002-.507.252-.764.752-.766 1.095-.004 2.19-.004 3.285 0 .5 0 .754.259.756.764.004 1.086.004 2.172 0 3.259 0 .515-.259.766-.78.768-1.08.002-2.156.002-3.235 0-.534 0-.778-.253-.78-.79v-1.617l.002-.002ZM6.2 23.329c.643 0 1.259-.002 1.873 0 .144 0 .169-.072.167-.193-.004-.4 0-.803 0-1.206v-.64H6.2v2.039Z"/></svg>
